X: 12
T:A Freixa
M:6/8
L:1/8
Q:200
C:Rogelio Grova
R:Muiñeira
B:Leccións de Gaita. OTERO COVELO
K:C
G>AG |: c3 G>AG | c3 G>AG | c>BA B>AG |
A2G G>AG | B3 G>AG | B3 G>AG B>AG A>GF |1 
E3 G>AG :|2 E3 E>FG |: E>FG E>FG | A2G G>AB |
c>BA B>AG | A2G D>EF | D>EF D>EF | G2F F>GA |
B>cB A>GF |1 E3 E>FG :|2 E2 "F."c

